X: 20041
T: Jimmy Duffy's Highland
R: strathspey
M: 4/4
K: Dmajor
B>c|d2 d>B A>DF>D|E>ee>f e>dB>c|d2 d>B A>GF>D|E>FG>E F<DB>c|
d2 d>B A>DF>D|E>ee>f e>dB>c|d2 d>B A>GF>D|E>FG>E F<DD>c||
d>ef>g a>fd>f|e>fe>d c>AA>c|d>ef>g a>fd>a|g>fe>c d2 d>c|
d>ef>g a>fd>f|e>fe>d c>AA>c|d>ef>g a2 b>a|g>fe>c d2||

